!!!OTL: Koenig und Marquise Lou Rey desumpey calkey dzour,
!!!ARE: Europa, Mitteleuropa, France
!!!YOR: 2, S. 30
!!    1904 gedruckt in Paris
!!!SCT: Q2035C
!!!YEM: Copyright 1995, estate of Helmut Schaffrath.
**kern
*ICvox
*Ivox
*M2/4
*k[f#]
*e:
{8a
16gn
16a
=1
8b
8ee
8ddn
8ccn
=2
4b}
{8a
16gn
16a
=3
8b
8ee
8ddn
8ccn
=4
4b}
{8b
16ccn
16ddn
=5
8ee
8ee
8.ddn
16ccn
=6
4b}
{8ddn
16ccn
16b
=7
8a
8gn
8a
16gn
16f#
=8
4e}
{8a
16gn
16a
=9
8b
8ee
8ddn
24b
24ccn
24b
=10
4a}
==
!!!AGN: Ballade, Frauenraub
!! Verzierung (Vorschlag) in der letzten Zeile. Franzoesische Version
!!    der Ballade.
!!!ONB: ESAC (Essen Associative Code) Database: BALLADE
!!!AMT: simple duple
!!!AIN: vox
!!!EED: Helmut Schaffrath
!!!EEV: 1.0
*-
